app/images/icons/expand.svg

<svg fill="none" height="18" viewBox="0 0 18 18" width="18" xmlns="http://www.w3.org/2000/svg"><path d="m9 .53125c-4.81641 0-8.71875 3.90234-8.71875 8.71875 0 4.8164 3.90234 8.7188 8.71875 8.7188 4.8164 0 8.7188-3.9024 8.7188-8.7188 0-4.81641-3.9024-8.71875-8.7188-8.71875zm5.0625 9.70315c0 .2461-.2109.4218-.4219.4218h-3.2344v3.2344c0 .2461-.2109.4219-.42182.4219h-1.96876c-.24609 0-.42187-.1758-.42187-.4219v-3.2344h-3.23437c-.2461 0-.42188-.1757-.42188-.4218v-1.96878c0-.21093.17578-.42187.42188-.42187h3.23437v-3.23437c0-.21094.17578-.42188.42187-.42188h1.96876c.21092 0 .42182.21094.42182.42188v3.23437h3.2344c.211 0 .4219.21094.4219.42187z" fill="#117cb6"/></svg>

<svg width="18" height="18" viewBox="0 0 18 18" fill="none" xmlns="http://www.w3.org/2000/svg">
<path d="M9 0.53125C4.18359 0.53125 0.28125 4.43359 0.28125 9.25C0.28125 14.0664 4.18359 17.9688 9 17.9688C13.8164 17.9688 17.7188 14.0664 17.7188 9.25C17.7188 4.43359 13.8164 0.53125 9 0.53125ZM14.0625 10.2344C14.0625 10.4805 13.8516 10.6562 13.6406 10.6562H10.4062V13.8906C10.4062 14.1367 10.1953 14.3125 9.98438 14.3125H8.01562C7.76953 14.3125 7.59375 14.1367 7.59375 13.8906V10.6562H4.35938C4.11328 10.6562 3.9375 10.4805 3.9375 10.2344V8.26562C3.9375 8.05469 4.11328 7.84375 4.35938 7.84375H7.59375V4.60938C7.59375 4.39844 7.76953 4.1875 8.01562 4.1875H9.98438C10.1953 4.1875 10.4062 4.39844 10.4062 4.60938V7.84375H13.6406C13.8516 7.84375 14.0625 8.05469 14.0625 8.26562V10.2344Z" fill="#117CB6"/>
</svg>
